!!!OTL: ES WOLLT EIN MAEDCHEN GRASEN GEHN
!!!ARE: Europa, Mitteleuropa, Deutschland, Bayern
!!!SCT: E0071A
!!!YEM: Copyright 1995, estate of Helmut Schaffrath.
**kern
*ICvox
*Ivox
*M4/4
*k[f#]
*G:
{4d
=1
4g
4g
4a
4a
=2
8b
8a
8g
8a
4g}
{4a
=3
4b
8b
8b
8dd
8cc
8b
8cc
=4
2dd
4r}
{8g
8b
=5
4dd
4dd
4dd
4gg
=6
2ee
4dd}
{8g
8b
=7
8dd
8dd
8dd
8dd
8dd
8cc
4cc
=8
2b
4r}
{8g
8b
=9
4dd
4dd
4dd
4gg
=10
2ee
4dd}
{8g
8b
=11
8dd
8dd
8dd
8dd
8dd
8cc
4cc
=12
2b
4r}
==
!!!AGN: erzaehlendes Volks - Lied, Sage, Liebe, Ballade ?
!!!ONB: ESAC (Essen Associative Code) Database: ERK1
!!!AMT: simple quadruple
!!!AIN: vox
!!!EED: Helmut Schaffrath
!!!EEV: 1.0
*-
